icons/sitemap.svg

<svg width="24" height="24" viewBox="0 0 24 24" fill="none" xmlns="http://www.w3.org/2000/svg">
<path fill-rule="evenodd" clip-rule="evenodd" d="M8 3C8 2.44772 8.44772 2 9 2H15C15.5523 2 16 2.44772 16 3V9C16 9.55228 15.5523 10 15 10H13V11H16C17.6569 11 19 12.3431 19 14H21C21.5523 14 22 14.4477 22 15V21C22 21.5523 21.5523 22 21 22H15C14.4477 22 14 21.5523 14 21V15C14 14.4477 14.4477 14 15 14H17C17 13.4477 16.5523 13 16 13H8C7.44772 13 7 13.4477 7 14H9C9.55228 14 10 14.4477 10 15V21C10 21.5523 9.55228 22 9 22H3C2.44772 22 2 21.5523 2 21V15C2 14.4477 2.44772 14 3 14H5C5 12.3431 6.34315 11 8 11H11V10H9C8.44772 10 8 9.55228 8 9V3ZM10 4V8H14V4H10ZM4 16V20H8V16H4ZM16 16V20H20V16H16Z" fill="black"/>
</svg>

<svg
  width="24"
  height="24"
  viewBox="0 0 24 24"
  xmlns="http://www.w3.org/2000/svg"
>
  <path
    fill-rule="evenodd"
    clip-rule="evenodd"
    d="M8 3a1 1 0 0 1 1-1h6a1 1 0 0 1 1 1v6a1 1 0 0 1-1 1h-2v1h3a3 3 0 0 1 3 3h2a1 1 0 0 1 1 1v6a1 1 0 0 1-1 1h-6a1 1 0 0 1-1-1v-6a1 1 0 0 1 1-1h2a1 1 0 0 0-1-1H8a1 1 0 0 0-1 1h2a1 1 0 0 1 1 1v6a1 1 0 0 1-1 1H3a1 1 0 0 1-1-1v-6a1 1 0 0 1 1-1h2a3 3 0 0 1 3-3h3v-1H9a1 1 0 0 1-1-1V3zm2 1v4h4V4h-4zM4 16v4h4v-4H4zm12 0v4h4v-4h-4z"
  />
</svg>
